images/svg/work-preview-cloud4rpi.svg

<svg fill="none" height="460" viewBox="0 0 640 460" width="640" xmlns="http://www.w3.org/2000/svg"><g fill="#fff"><path clip-rule="evenodd" d="m432.939 221.659 3.111-17.327c.468-2.608.716-5.311.716-8.091 0-24.966-20.113-45.017-44.692-45.017-7.532 0-14.568 1.858-20.747 5.129l-15.774 8.351-11.978-13.232c-13.265-14.654-33.962-24.522-57.796-24.522-42.919 0-73.682 30.966-73.682 64.437 0 2.097.114 4.163.336 6.195l2.009 18.409-17.569 5.854c-21.592 7.194-37.923 28.55-37.923 54.501 0 32.341 25.098 57.154 54.355 57.154h212.59c29.916 0 54.355-24.398 54.355-54.727 0-21.965-12.841-40.895-31.382-49.619zm-219.634 134.791c-42.694 0-77.305-35.864-77.305-80.104 0-35.679 22.511-65.91 53.619-76.274-.312-2.857-.472-5.755-.472-8.685 0-48.263 43.264-87.387 96.632-87.387 30.158 0 57.089 12.494 74.81 32.07 9.404-4.978 20.117-7.796 31.485-7.796 37.357 0 67.642 30.43 67.642 67.967 0 4.146-.37 8.206-1.077 12.147 26.326 12.386 44.561 39.246 44.561 70.385 0 42.9-34.611 77.677-77.305 77.677z" fill-rule="evenodd"/><path clip-rule="evenodd" d="m258.4 268.475c0-34.629 27.068-62.935 61.2-64.915v-22.979c-46.813 2.003-84.15 40.588-84.15 87.894 0 25.761 11.072 48.936 28.718 65.025h118.514-63.082v-.111c-34.132-1.98-61.2-30.286-61.2-64.914z" fill-rule="evenodd"/><path d="m319.6 180.5c12.675 0 22.95 10.275 22.95 22.95v107.1h-22.95z"/><path d="m394.283 218.6h-51.733v22.95h51.733c5.229 0 9.467-4.238 9.467-9.467v-4.016c0-5.229-4.238-9.467-9.467-9.467z"/><path d="m394.283 264.645h-51.733v22.95h51.733c5.229 0 9.467-4.238 9.467-9.467v-4.016c0-5.228-4.238-9.467-9.467-9.467z"/></g></svg>

<svg width="640" height="460" viewBox="0 0 640 460" fill="none" xmlns="http://www.w3.org/2000/svg">
<path fill-rule="evenodd" clip-rule="evenodd" d="M432.939 221.659L436.05 204.332C436.518 201.724 436.766 199.021 436.766 196.241C436.766 171.275 416.653 151.224 392.074 151.224C384.542 151.224 377.506 153.082 371.327 156.353L355.553 164.704L343.575 151.472C330.31 136.818 309.613 126.95 285.779 126.95C242.86 126.95 212.097 157.916 212.097 191.387C212.097 193.484 212.211 195.55 212.433 197.582L214.442 215.991L196.873 221.845C175.281 229.039 158.95 250.395 158.95 276.346C158.95 308.687 184.048 333.5 213.305 333.5H425.895C455.811 333.5 480.25 309.102 480.25 278.773C480.25 256.808 467.409 237.878 448.868 229.154L432.939 221.659ZM213.305 356.45C170.611 356.45 136 320.586 136 276.346C136 240.667 158.511 210.436 189.619 200.072C189.307 197.215 189.147 194.317 189.147 191.387C189.147 143.124 232.411 104 285.779 104C315.937 104 342.868 116.494 360.589 136.07C369.993 131.092 380.706 128.274 392.074 128.274C429.431 128.274 459.716 158.704 459.716 196.241C459.716 200.387 459.346 204.447 458.639 208.388C484.965 220.774 503.2 247.634 503.2 278.773C503.2 321.673 468.589 356.45 425.895 356.45H213.305Z" fill="white"/>
<path fill-rule="evenodd" clip-rule="evenodd" d="M258.4 268.475C258.4 233.846 285.468 205.54 319.6 203.56V180.581C272.787 182.584 235.45 221.169 235.45 268.475C235.45 294.236 246.522 317.411 264.168 333.5H382.682L319.6 333.5V333.389C285.468 331.409 258.4 303.103 258.4 268.475Z" fill="white"/>
<path d="M319.6 180.5C332.275 180.5 342.55 190.775 342.55 203.45V310.55H319.6V180.5Z" fill="white"/>
<path d="M394.283 218.6H342.55V241.55H394.283C399.512 241.55 403.75 237.312 403.75 232.083V228.067C403.75 222.838 399.512 218.6 394.283 218.6Z" fill="white"/>
<path d="M394.283 264.645H342.55V287.595H394.283C399.512 287.595 403.75 283.357 403.75 278.128V274.112C403.75 268.884 399.512 264.645 394.283 264.645Z" fill="white"/>
</svg>
